X: 11409
T: East Neuk O Fife, The
R: reel
M: 4/4
K: Gmajor
D2|:G2 G2 G2 Bc|dBGB dBGB|A2 A2 A2 gf|e3d ef g2|
dcBA GABc|dBGB d2 cB|ABcd BcAB|1 G2 E2 E2 D2:|2 G2 E2 E2 dc||
|:B2 G2 G2 dc|B2 G2 G2 ed|c2 A2 A2 fg|a2 A2 A2 Bc|d2 G2 B2 G2|
gfge d2 cB|ABcd BcAB|1 G2 E2 E2 dc:|2 G2 E2 E2 d2||
|:g2 gd BcdB|g2 gd BcdB|a2 ae ^cdec|a2 ae ^cdec|
g2 gd BcdB|g2 gd BcdB|ABcd BcAB|1 G2 E2 E2 d2:|2 G2 E2 E4||

